X:1
T:Close of the Day
T:A minor Hezekiah Moors, 1809
T:Transcribed from Province Harmony, 1809; Counter by B. C. Johnston, 2018.
T:88. 88. (L. M.) Anonymous Author, before 1795
%%score [ 1 2 3 4 ]
L:1/8
Q:1/4=250
M:2/2
K:C
V:1 treble nm="Tr." snm="Tr."
V:2 treble nm="C." snm="C."
V:3 treble-8 nm="T." snm="T."
V:4 bass nm="B." snm="B."
V:1
"_1. The night draws near, we must away; With  hal–le – lu  – jahs  close  the   day;       The  sun  sets   in     the  western  skies,  We  never\n2.  And  if  I  wake  be –  fore  the light,  Clad in the man  – tles   of       the   night,    I’ll  think  the  last   great  day  is  near;  The trumpet""^Presto" A4 | %1
 c4 B4 | A4 e4 | (d2 c2) B4 | A4 B4 | c4 d4 | e4 e4 | c4 (B2 A2) | ^G8 | z4 ^G4 | A4 A4 | B4 B4 | %12
 A4 (E2 F2) | G4 f4 | e4 c4 | %15
"_1. more may see him  rise.   Bright  angels, tune your anthems high, While on our beds  as    graves    we      lie;       And spread your purple\n2. sounds, and all appear.     O   may    I    always    rea – dy   stand,  With my lamp burning   in      my        hand;    That   when  I   hear  the" d4 (e2 d2) | %16
 c4 B4 | A8 | z4 A4 | c4 c4 | d4 c4 | B4 A4 | ^G4 G4 | A4 B4 | (c3 d) e4 | e4 ^d4 | e8 | z4 e4 | %28
 c4 B4 | A4 ^G4 | %30
"_1. pin  –  ions  round,  And may our sleep  be   sweet    and  sound.\n2. bridegroom's voice,   I   may  in   sight  of    heav'n    re  –  joice." (A2 c2) (B2 A2) | %31
 ^G4 G4 | A4 B4 | c4 c4 | (B2 A2) ^G4 | A8 |] %36
V:2
 E4 | A4 E4 | A4 c4 | (d2 c2) B4 | A4 B4 | A4 G4 | (E3 D) E4 | A4 (B2 A2) | B8 | z4 B4 | A4 A4 | %11
 ^G4 B4 | A4 (G2 F2) | E4 D4 | E4 A4 | B4 (c2 B2) | A4 E4 | A8 | z4 A4 | c4 A4 | F4 E4 | D4 C4 | %22
 E4 ^G4 | A4 B4 | A4 E4 | E4 ^D4 | E8 | z4 E4 | A4 B4 | A4 B4 | A4 (B2 A2) | B4 B4 | A4 G4 | %33
 E4 E4 | (D2 C2) E4 | E8 |] %36
V:3
"_1. The night draws near, we must away; With  hal–le – lu  – jahs  close  the   day;       The  sun  sets   in     the  western  skies,  We  never\n2.  And  if  I  wake  be –  fore  the light,  Clad in the man  – tles   of       the   night,    I’ll  think  the  last   great  day  is  near;  The trumpet" E4 | %1
 A4 B4 | c4 c4 | (B2 A2) ^G4 | A4 E4 | A4 B4 | (c3 d) e4 | A4 (d2 c2) | B8 | z4 B4 | c4 c4 | %11
 B4 ^G4 | A4 (G2 F2) | E4 A4 | ^G4 A4 | %15
"_1. more may see him  rise.   Bright  angels, tune your anthems high, While on our beds  as    graves    we      lie;       And spread your purple\n2. sounds, and all appear.     O   may    I    always    rea – dy   stand,  With my lamp burning   in      my        hand;    That   when  I   hear  the" B4 (c2 B2) | %16
 A4 ^G4 | A8 | z4 c4 | e4 e4 | f4 e4 | d4 c4 | B4 B4 | c4 d4 | c4 B4 | A4 (^G2 ^F2) | E8 | z4 E4 | %28
 A4 G4 | c4 B4 | %30
"_1. pin  –  ions  round,  And may our sleep  be   sweet    and  sound.\n2. bridegroom's voice,   I   may  in   sight  of    heav'n    re  –  joice." A4 (d2 c2) | %31
 B4 B4 | c4 d4 | e4 e4 | (d2 c2) B4 | A8 |] %36
V:4
 A,,4 | A,,4 E,4 | A,4 A,4 | D,4 E,4 | A,,4 E,4 | A,4 G,4 | C,4 C,4 | F,4 D,4 | E,8- | E,4 E,4 | %10
 A,4 A,4 | ^G,4 E,4 | F,4 (E,2 D,2) | C,4 D,4 | E,4 A,4 | G,4 (C,2 D,2) | E,4 E,4 | A,,8 | z4 A,4 | %19
 A,4 A,4 | B,4 C4 | G,4 A,4 | E,4 E,4 | C,4 B,,4 | A,,4 E,4 | A,4 B,4 | E,8- | E,4 E,4 | A,,4 E,4 | %29
 A,4 E,4 | F,4 D,4 | %31
"___________________________________________________\nEdited by B. C. Johnston, 2018\n   1. Measure 18, \nBass\n: note chhanged from C to A, probably a misprint.\n   2. Counter part written." E,4 E,4 | %32
 A,4 G,4 | C,4 C,4 | D,4 E,4 | A,,8 |] %36

